flutter/assets/folder.svg

<svg xmlns="http://www.w3.org/2000/svg" width="32" height="32" style="isolation:isolate" viewBox="129.858 75.669 32 32"><path fill="none" d="M129.858 75.669h32v32h-32v-32Z"/><path d="M138.617 99.535H153.1a2.76 2.76 0 0 0 2.758-2.758V89.32a2.76 2.76 0 0 0-2.758-2.759h-5.397a.552.552 0 0 1-.552-.552v-.827a1.38 1.38 0 0 0-1.379-1.38h-5.776c-.761 0-1.816.437-2.355.976l-.808.808c-.538.538-.975 1.593-.975 2.354v8.837a2.76 2.76 0 0 0 2.759 2.758Z"/></svg>

<?xml version="1.0" encoding="UTF-8" standalone="no"?>
<svg xmlns="http://www.w3.org/2000/svg" xmlns:xlink="http://www.w3.org/1999/xlink" style="isolation:isolate" viewBox="129.858 75.669 32 32" width="32" height="32"><g><path d=" M 129.858 75.669 L 161.858 75.669 L 161.858 107.669 L 129.858 107.669 L 129.858 75.669 Z " fill="none"/><path d=" M 138.617 99.535 L 153.1 99.535 C 154.622 99.535 155.858 98.299 155.858 96.777 L 155.858 89.32 C 155.858 87.797 154.622 86.561 153.1 86.561 L 147.703 86.561 C 147.399 86.561 147.151 86.314 147.151 86.009 L 147.151 85.182 C 147.151 84.421 146.533 83.802 145.772 83.802 L 139.996 83.802 C 139.235 83.802 138.18 84.239 137.641 84.778 L 136.833 85.586 C 136.295 86.124 135.858 87.179 135.858 87.94 L 135.858 96.777 C 135.858 98.299 137.094 99.535 138.617 99.535 Z " fill="rgb(0,0,0)"/></g></svg>
